svg/Pictogram/pictograms-nps-water-rowboating.svg

<svg xmlns="http://www.w3.org/2000/svg" viewBox="0 0 256 256"><path d="m0 0c-.54 0-.979-.44-.979-.981v-7.522c0-.541.439-.981.979-.981h7.521c.541 0 .981.44.981.981v7.522c0 .541-.44.981-.981.981h-7.521" fill="#fff" transform="matrix(25.90569 0 0-25.90569 30.556 5.114)"/><path d="m0 0c.652 0 1.182.529 1.182 1.182v7.521c0 .652-.53 1.182-1.182 1.182h-7.521c-.652 0-1.179-.53-1.179-1.182v-7.521c0-.653.527-1.182 1.179-1.182h7.521" transform="matrix(25.90569 0 0-25.90569 225.38 256)"/><g fill="#fff"><path d="m0 0c.402 0 .727.326.727.727 0 .402-.325.728-.727.728-.402 0-.729-.326-.729-.728 0-.401.327-.727.729-.727" transform="matrix(25.90569 0 0-25.90569 157.58 80.935)"/><path d="m0 0c-.172 0-.338.039-.484.104-.151.07-.321.111-.498.111-.176 0-.346-.041-.497-.111-.148-.065-.312-.104-.484-.104-.172 0-.336.039-.482.104-.151.07-.321.111-.498.111-.178 0-.348-.041-.498-.111-.147-.065-.311-.104-.483-.104-.172 0-.336.039-.484.104-.151.07-.319.111-.496.111-.178 0-.348-.041-.498-.111-.147-.065-.311-.104-.483-.104-.171 0-.335.039-.483.104-.151.07-.32.111-.496.111-.178 0-.348-.041-.498-.111-.147-.065-.311-.104-.483-.104v.725c.172 0 .336.037.483.103.15.07.32.111.498.111.176 0 .345-.041.496-.111.148-.066.312-.103.483-.103.172 0 .336.037.483.103.15.07.32.111.498.111.177 0 .345-.041.496-.111.148-.066.312-.103.484-.103.172 0 .336.037.483.103.15.07.32.111.498.111.177 0 .347-.041.498-.111.146-.066.31-.103.482-.103.172 0 .336.037.484.103.151.07.321.111.497.111.177 0 .347-.041.498-.111.146-.066.312-.103.484-.103v-.725" transform="matrix(25.90569 0 0-25.90569 231.25 215.93)"/><path d="m0 0c.146.066.309.104.48.104.176 0 .346-.041.497-.112.148-.064.312-.103.483-.103.172 0 .336.039.482.103.151.071.321.112.498.112.178 0 .346-.041.497-.112.148-.064.312-.103.484-.103.172 0 .336.039.482.103.096.045.196.074.301.094l1.254 1.434h-1.613l.668 1.146 1.465-.801c.484-.273.841.358.355.631l-2.098 1.16c-.771.43-1.097-.283-1.097-.283l-1.082-1.828-2.851.002c.09-.522.559-1.221.795-1.547" transform="matrix(25.90569 0 0-25.90569 40.978 178.53)"/><path d="m0 0c.111-.018.219-.051.318-.098.147-.064.311-.103.483-.103.172 0 .336.039.484.103.151.071.32.112.496.112.178 0 .348-.041.498-.112.147-.064.313-.103.485-.103l-.004 1.631-1.512.002-1.248-1.432" transform="matrix(25.90569 0 0-25.90569 159.65 176.21)"/></g></svg>

<?xml version="1.0" encoding="UTF-8" standalone="no"?>
<!-- Created with Inkscape (http://www.inkscape.org/) -->
<svg
   xmlns:dc="http://purl.org/dc/elements/1.1/"
   xmlns:cc="http://creativecommons.org/ns#"
   xmlns:rdf="http://www.w3.org/1999/02/22-rdf-syntax-ns#"
   xmlns:svg="http://www.w3.org/2000/svg"
   xmlns="http://www.w3.org/2000/svg"
   xmlns:sodipodi="http://sodipodi.sourceforge.net/DTD/sodipodi-0.dtd"
   xmlns:inkscape="http://www.inkscape.org/namespaces/inkscape"
   width="256"
   height="256"
   id="svg5294"
   sodipodi:version="0.32"
   inkscape:version="0.46"
   version="1.0"
   sodipodi:docname="pictograms-nps-water-rowboating-2.svg"
   inkscape:output_extension="org.inkscape.output.svg.inkscape">
  <defs
     id="defs5296">
    <inkscape:perspective
       sodipodi:type="inkscape:persp3d"
       inkscape:vp_x="0 : 526.18109 : 1"
       inkscape:vp_y="0 : 1000 : 0"
       inkscape:vp_z="744.09448 : 526.18109 : 1"
       inkscape:persp3d-origin="372.04724 : 350.78739 : 1"
       id="perspective5302" />
  </defs>
  <sodipodi:namedview
     id="base"
     pagecolor="#ffffff"
     bordercolor="#666666"
     borderopacity="1.0"
     gridtolerance="10000"
     guidetolerance="10"
     objecttolerance="10"
     inkscape:pageopacity="0.0"
     inkscape:pageshadow="2"
     inkscape:zoom="1.4"
     inkscape:cx="124.57192"
     inkscape:cy="109.97938"
     inkscape:document-units="px"
     inkscape:current-layer="layer1"
     showgrid="false"
     inkscape:window-width="747"
     inkscape:window-height="674"
     inkscape:window-x="0"
     inkscape:window-y="309" />
  <metadata
     id="metadata5299">
    <rdf:RDF>
      <cc:Work
         rdf:about="">
        <dc:format>image/svg+xml</dc:format>
        <dc:type
           rdf:resource="http://purl.org/dc/dcmitype/StillImage" />
      </cc:Work>
    </rdf:RDF>
  </metadata>
  <g
     inkscape:label="Layer 1"
     inkscape:groupmode="layer"
     id="layer1">
    <g
       id="g4458"
       transform="matrix(25.905687,0,0,-25.905687,30.555841,5.1137826)">
      <path
         d="M 0,0 C -0.54,0 -0.979,-0.44 -0.979,-0.981 L -0.979,-8.503 C -0.979,-9.044 -0.54,-9.484 0,-9.484 L 7.521,-9.484 C 8.062,-9.484 8.502,-9.044 8.502,-8.503 L 8.502,-0.981 C 8.502,-0.44 8.062,0 7.521,0 L 0,0 z"
         style="fill:#ffffff;fill-opacity:1;fill-rule:nonzero;stroke:none"
         id="path4460" />
    </g>
    <g
       id="g4462"
       transform="matrix(25.905687,0,0,-25.905687,225.37948,256)">
      <path
         d="M 0,0 C 0.652,0 1.182,0.529 1.182,1.182 L 1.182,8.703 C 1.182,9.355 0.652,9.885 0,9.885 L -7.521,9.885 C -8.173,9.885 -8.7,9.355 -8.7,8.703 L -8.7,1.182 C -8.7,0.529 -8.173,0 -7.521,0 L 0,0 z"
         style="fill:#000000;fill-opacity:1;fill-rule:nonzero;stroke:none"
         id="path4464" />
    </g>
    <g
       id="g4466"
       transform="matrix(25.905687,0,0,-25.905687,157.57951,80.934548)">
      <path
         d="M 0,0 C 0.402,0 0.727,0.326 0.727,0.727 C 0.727,1.129 0.402,1.455 0,1.455 C -0.402,1.455 -0.729,1.129 -0.729,0.727 C -0.729,0.326 -0.402,0 0,0"
         style="fill:#ffffff;fill-opacity:1;fill-rule:nonzero;stroke:none"
         id="path4468" />
    </g>
    <g
       id="g4470"
       transform="matrix(25.905687,0,0,-25.905687,231.24991,215.9268)">
      <path
         d="M 0,0 C -0.172,0 -0.338,0.039 -0.484,0.104 C -0.635,0.174 -0.805,0.215 -0.982,0.215 C -1.158,0.215 -1.328,0.174 -1.479,0.104 C -1.627,0.039 -1.791,0 -1.963,0 C -2.135,0 -2.299,0.039 -2.445,0.104 C -2.596,0.174 -2.766,0.215 -2.943,0.215 C -3.121,0.215 -3.291,0.174 -3.441,0.104 C -3.588,0.039 -3.752,0 -3.924,0 C -4.096,0 -4.26,0.039 -4.408,0.104 C -4.559,0.174 -4.727,0.215 -4.904,0.215 C -5.082,0.215 -5.252,0.174 -5.402,0.104 C -5.549,0.039 -5.713,0 -5.885,0 C -6.056,0 -6.22,0.039 -6.368,0.104 C -6.519,0.174 -6.688,0.215 -6.864,0.215 C -7.042,0.215 -7.212,0.174 -7.362,0.104 C -7.509,0.039 -7.673,0 -7.845,0 L -7.845,0.725 C -7.673,0.725 -7.509,0.762 -7.362,0.828 C -7.212,0.898 -7.042,0.939 -6.864,0.939 C -6.688,0.939 -6.519,0.898 -6.368,0.828 C -6.22,0.762 -6.056,0.725 -5.885,0.725 C -5.713,0.725 -5.549,0.762 -5.402,0.828 C -5.252,0.898 -5.082,0.939 -4.904,0.939 C -4.727,0.939 -4.559,0.898 -4.408,0.828 C -4.26,0.762 -4.096,0.725 -3.924,0.725 C -3.752,0.725 -3.588,0.762 -3.441,0.828 C -3.291,0.898 -3.121,0.939 -2.943,0.939 C -2.766,0.939 -2.596,0.898 -2.445,0.828 C -2.299,0.762 -2.135,0.725 -1.963,0.725 C -1.791,0.725 -1.627,0.762 -1.479,0.828 C -1.328,0.898 -1.158,0.939 -0.982,0.939 C -0.805,0.939 -0.635,0.898 -0.484,0.828 C -0.338,0.762 -0.172,0.725 0,0.725 L 0,0 z"
         style="fill:#ffffff;fill-opacity:1;fill-rule:nonzero;stroke:none"
         id="path4472" />
    </g>
    <g
       id="g4474"
       transform="matrix(25.905687,0,0,-25.905687,40.977802,178.53412)">
      <path
         d="M 0,0 C 0.146,0.066 0.309,0.104 0.48,0.104 C 0.656,0.104 0.826,0.063 0.977,-0.008 C 1.125,-0.072 1.289,-0.111 1.46,-0.111 C 1.632,-0.111 1.796,-0.072 1.942,-0.008 C 2.093,0.063 2.263,0.104 2.44,0.104 C 2.618,0.104 2.786,0.063 2.937,-0.008 C 3.085,-0.072 3.249,-0.111 3.421,-0.111 C 3.593,-0.111 3.757,-0.072 3.903,-0.008 C 3.999,0.037 4.099,0.066 4.204,0.086 L 5.458,1.52 L 3.845,1.52 L 4.513,2.666 L 5.978,1.865 C 6.462,1.592 6.819,2.223 6.333,2.496 L 4.235,3.656 C 3.464,4.086 3.138,3.373 3.138,3.373 L 2.056,1.545 L -0.795,1.547 C -0.705,1.025 -0.236,0.326 0,0"
         style="fill:#ffffff;fill-opacity:1;fill-rule:nonzero;stroke:none"
         id="path4476" />
    </g>
    <g
       id="g4478"
       transform="matrix(25.905687,0,0,-25.905687,159.65426,176.20779)">
      <path
         d="M 0,0 C 0.111,-0.018 0.219,-0.051 0.318,-0.098 C 0.465,-0.162 0.629,-0.201 0.801,-0.201 C 0.973,-0.201 1.137,-0.162 1.285,-0.098 C 1.436,-0.027 1.605,0.014 1.781,0.014 C 1.959,0.014 2.129,-0.027 2.279,-0.098 C 2.426,-0.162 2.592,-0.201 2.764,-0.201 L 2.76,1.43 L 1.248,1.432 L 0,0 z"
         style="fill:#ffffff;fill-opacity:1;fill-rule:nonzero;stroke:none"
         id="path4480" />
    </g>
  </g>
</svg>
